Numix-Light-GalliumOS/22/panel/copy-sync2.svg

<?xml version="1.0" encoding="UTF-8" standalone="no"?>
<!-- Generator: Adobe Illustrator 15.1.0, SVG Export Plug-In . SVG Version: 6.00 Build 0)  -->

<svg
   xmlns:dc="http://purl.org/dc/elements/1.1/"
   xmlns:cc="http://creativecommons.org/ns#"
   xmlns:rdf="http://www.w3.org/1999/02/22-rdf-syntax-ns#"
   xmlns:svg="http://www.w3.org/2000/svg"
   xmlns="http://www.w3.org/2000/svg"
   xmlns:sodipodi="http://sodipodi.sourceforge.net/DTD/sodipodi-0.dtd"
   xmlns:inkscape="http://www.inkscape.org/namespaces/inkscape"
   version="1.1"
   id="Layer_1"
   x="0px"
   y="0px"
   width="22"
   height="22"
   viewBox="0 0 22 22"
   enable-background="new 0 0 24 24"
   xml:space="preserve"
   inkscape:version="0.91 r"
   sodipodi:docname="copy-sync2.svg"><metadata
     id="metadata29"><rdf:RDF><cc:Work
         rdf:about=""><dc:format>image/svg+xml</dc:format><dc:type
           rdf:resource="http://purl.org/dc/dcmitype/StillImage" /><dc:title /></cc:Work></rdf:RDF></metadata><defs
     id="defs27" /><sodipodi:namedview
     pagecolor="#ffffff"
     bordercolor="#666666"
     borderopacity="1"
     objecttolerance="10"
     gridtolerance="10"
     guidetolerance="10"
     inkscape:pageopacity="0"
     inkscape:pageshadow="2"
     inkscape:window-width="1366"
     inkscape:window-height="747"
     id="namedview25"
     showgrid="false"
     inkscape:zoom="39.333334"
     inkscape:cx="2.9129551"
     inkscape:cy="11.010535"
     inkscape:window-x="0"
     inkscape:window-y="21"
     inkscape:window-maximized="1"
     inkscape:current-layer="Layer_1" /><polygon
     points="18.162,10.28 16.033,8.347 22.172,0.866 22.76,1.286 "
     id="polygon17"
     style="opacity:0.4;fill:#353535;fill-opacity:1"
     transform="matrix(0.88289963,0,0,0.88294066,0.40520444,0.73537336)" /><path
     style="fill:#353535;fill-opacity:1"
     d="M 5.0625,9.8120033 1.5,10.999559 1.5,9.8120033 5.0625,6.7208281 6.2491171,7.43601 8.303,12.49 6.25,14.562 Z"
     id="polygon19"
     inkscape:connector-curvature="0"
     sodipodi:nodetypes="cccccccc" /><path
     style="opacity:0.4;fill:#353535;fill-opacity:1"
     d="M 5.0625,6.7207031 1.5,9.8125 1.5,11 5.0625,9.8125 l 1.1875,4.75 1.1875,4.75 2.919922,-1.767578 0,-0.002 9.783203,2.957031 0.326172,0 L 20.5,20.230469 16.9375,12.1875 15.75,11 9.671875,15.857422 8.303,12.49 6.25,7.4355469 Z"
     id="polyline21"
     inkscape:connector-curvature="0"
     sodipodi:nodetypes="ccccccccccccccccc" /><path
     d="M 10.504693,13.373786 8.6497212,9.8120033 11,8.6244482 c 1.186617,0 3.560734,1.1875551 3.560734,1.1875551 l -4.056041,3.5617827 z"
     id="path23"
     inkscape:connector-curvature="0"
     style="opacity:0.4;fill:#353535;fill-opacity:1" /></svg>

<!-- Generator: Adobe Illustrator 15.1.0, SVG Export Plug-In . SVG Version: 6.00 Build 0)  -->
<svg xmlns="http://www.w3.org/2000/svg" viewBox="0 0 22 22" style="enable-background:new 0 0 24 24">
 <polygon points="18.162,10.28 16.033,8.347 22.172,0.866 22.76,1.286 " transform="matrix(0.88289963,0,0,0.88294066,0.40520444,0.73537336)" style="fill:#353535;opacity:0.4;fill-opacity:1"/>
 <path d="m 5.063 9.812 -3.563 1.188 0 -1.188 3.563 -3.091 1.187 0.715 2.054 5.05 -2.053 2.072" style="fill:#353535;fill-opacity:1"/>
 <path d="m 5.063 6.721 -3.563 3.092 0 1.188 3.563 -1.188 l 1.188 4.75 1.188 4.75 2.92 -1.768 0 -0.002 9.783 2.957 0.326 0 l 0.033 -0.269 -3.563 -8.04 -1.188 -1.188 -6.078 4.857 -1.369 -3.367 -2.053 -5.05" style="fill:#353535;opacity:0.4;fill-opacity:1"/>
 <path d="m 10.505 13.374 -1.855 -3.562 2.35 -1.188 c 1.187 0 3.561 1.188 3.561 1.188 l -4.056 3.562 z" style="fill:#353535;opacity:0.4;fill-opacity:1"/>
</svg>
